X: 1
T: String Quartet in B\b Major opus 33 no 4 mvt 4
C: Franz Joseph Haydn
%%abc-version 2.0
%%abcx-abcm2ps-target-version 5.9.1 (29 Sep 2008)
%%abc-creator hum2abc beta
%%abcx-conversion-date 2021/02/14 14:38:28
%%abc-copyright Copyright (c) 1994, 2000 Center for Computer Assisted Research in the Humanities
%%abc-edited-by Frances Bennion
%%abcx-initial-encoding-date 1997/04/15
%%gracespace 0 6 6
%%humdrum-veritas 2893659218
%%humdrum-veritas-data 3251813362
%%linebreak <none>
%%barnumbers 0
L: 1/8
M: 2/4
N: Derived from op33n4-04.krn
Q: "Presto"
%%staves [1 2 3 4]
V: 1
V: 2
V: 3 clef=alto
V: 4 clef=bass
K: Bb
[V:1]z3 D/F/ [I:setbarnb1]|
[V:2]z3 z |
[V:3]z3 z |
[V:4]z3 z |
[V:1]BB Be/d/ |
[V:2]zD Dz |
[V:3]zF Fz |
[V:4]zB, B,z |
[V:1]cc cf/e/ |
[V:2]zA Az |
[V:3]zF Fz |
[V:4]zF, F,z |
[V:1]db ge |
[V:2]zd ec |
[V:3]zF GG |
[V:4]zB,, E,E, |
[V:1]d2 ce/c/ |
[V:2]B2 Az |
[V:3]F2 z2 |
[V:4]F,2 F,,z |
[V:1]Ac' c'A/c/ |
[V:2]zA Az |
[V:3]zA, A,z |
[V:4]zF, F,z |
[V:1]eE ED/F/ |
[V:2]zC Cz |
[V:3]zA, A,z |
[V:4]zA, A,z |
[V:1]Bd cB/A/ |
[V:2]zF GE |
[V:3]zD EC |
[V:4]zB,, E,F, |
[V:1]B2 zB/d/ |
[V:2]D2 z2 |
[V:3]B,2 z2 |
[V:4]B,,F,, B,,z |
[V:1]gg gb/g/ |
[V:2]zD Dz |
[V:3]zG Gz |
[V:4]zB, B,z |
[V:1]^fd dB/d/ |
[V:2]z^F Fz |
[V:3]zA Az |
[V:4]zC Cz |
[V:1]gg gb/g/ |
[V:2]zD Dz |
[V:3]zG Gz |
[V:4]zB, B,z |
[V:1]=ec cA/c/ |
[V:2]z=E Ez |
[V:3]zG Gz |
[V:4]zB, B,z |
[V:1]ff fg/=e/ |
[V:2]AA AB/G/ |
[V:3]CC CC |
[V:4]A,F, F,C, |
[V:1]af fA/c/ |
[V:2]cA Az |
[V:3]C2 z2 |
[V:4]F,2 z2 |
[V:1]ff gg |
[V:2]FF DD |
[V:3]DD DD |
[V:4]D,D, B,,B,, |
[V:1]a3 A/c/ |
[V:2]^C2 z2 |
[V:3]=E2 z2 |
[V:4]A,,2 z2 |
[V:1]ff fg/=e/ |
[V:2]AA AB/G/ |
[V:3]CC CC |
[V:4]A,F, F,C, |
[V:1]af fA/c/ |
[V:2]cA Az |
[V:3]C2 z2 |
[V:4]F,2 z2 |
[V:1]ff gg |
[V:2]FF DD |
[V:3]DD DD |
[V:4]D,D, B,,B,, |
[V:1]a3 f/a/ |
[V:2]^C3 z |
[V:3]=E3 z |
[V:4]A,,3 z |
[V:1]c'c' c'f/b/ |
[V:2]zf fz |
[V:3]zF Fz |
[V:4]zA, A,z |
[V:1]d'd' d'b |
[V:2]zf fz |
[V:3]zD Dz |
[V:4]zB, B,z |
[V:1]a/c'/f g/b/=e |
[V:2]zA zB |
[V:3]zC zC |
[V:4]Cz C,z |
[V:1]f3 _a/f/ |
[V:2]zA Az |
[V:3]zC Cz |
[V:4]zF, F,z |
[V:1]=BB BE/G/ |
[V:2]zF Fz |
[V:3]zD Dz |
[V:4]zG, G,z |
[V:1]cc cE/G/ |
[V:2]zE Ez |
[V:3]zG Gz |
[V:4]zC, C,z |
[V:1]cc ce/c/ |
[V:2]zG GE |
[V:3]zE EE |
[V:4]zE, E,E, |
[V:1]B2 AD/F/ |
[V:2]D2 Cz |
[V:3]F2 z2 |
[V:4]F,2 F,,z |
[V:1]BB Be/d/ |
[V:2]zD Dz |
[V:3]zF Fz |
[V:4]zB, B,z |
[V:1]cc cf/e/ |
[V:2]zA Az |
[V:3]zF Fz |
[V:4]zF, F,z |
[V:1]db ge |
[V:2]zd ec |
[V:3]zF GG |
[V:4]zB,, E,E, |
[V:1]d2 ce/c/ |
[V:2]B2 Az |
[V:3]F2 z2 |
[V:4]F,2 F,,z |
[V:1]Ac' c'A/c/ |
[V:2]zA Az |
[V:3]zA, A,z |
[V:4]zF, F,z |
[V:1]eE ED/F/ |
[V:2]zC Cz |
[V:3]zA, A,z |
[V:4]zA, A,z |
[V:1]Bd cB/A/ |
[V:2]zF GE |
[V:3]zD EC |
[V:4]zB,, E,F, |
[V:1]B2 z2 |
[V:2]D2 z2 |
[V:3]B,2 z2 |
[V:4]B,,2 zG,/B,/ |
[V:1]zB ge |
[V:2]G4 |
[V:3]z4 |
[V:4]E4 |
[V:1]ed fz |
[V:2]_A2 z2 |
[V:3]z4 |
[V:4]F3 B,/D/ |
[V:1]zd bd |
[V:2]_A4 |
[V:3]z4 |
[V:4]F4 |
[V:1]fe gz |
[V:2]B2 z2 |
[V:3]z4 |
[V:4]G3 E/G/ |
[V:1]zc c'_a |
[V:2]z4 |
[V:3]z4 |
[V:4]_A3 F |
[V:1]gf bd |
[V:2]z3 d |
[V:3]z3 B |
[V:4]ED F_A, |
[V:1]eB GE |
[V:2]eB GE |
[V:3]eB GE |
[V:4]G,B, G,E, |
[V:1]B2 zB/d/ |
[V:2]B,2 z2 |
[V:3]B,2 z2 |
[V:4]B,,2 z2 |
[V:1]fz2 B/e/ |
[V:2]zB,/D/ Fz |
[V:3]Bz3 |
[V:4]Dz3 |
[V:1]gz2 a/c'/ |
[V:2]zB,/E/ Gz |
[V:3]Bz3 |
[V:4]Ez3 |
[V:1]e'z2 d/f/ |
[V:2]zA/c/ ez |
[V:3]Az3 |
[V:4]Cz3 |
[V:1]bz3 |
[V:2]zD/F/ Bz |
[V:3]Bz2 B,/D/ |
[V:4]B,z3 |
[V:1]dz3 |
[V:2]z4 |
[V:3]Fz2 B,/E/ |
[V:4]zB,,/D,/ F,z |
[V:1]ez3 |
[V:2]z4 |
[V:3]Gz2 A/c/ |
[V:4]zB,,/E,/ G,z |
[V:1]Az3 |
[V:2]Cz3 |
[V:3]ez2 D/F/ |
[V:4]zA,/C/ Ez |
[V:1]Bz2 G/B/ |
[V:2]B,z3 |
[V:3]Bz3 |
[V:4]zD,/F,/ B,z |
[V:1]e4 |
[V:2]z2 BB |
[V:3]z4 |
[V:4]zG, GE |
[V:1]f3 B/d/ |
[V:2]B2 z2 |
[V:3]z4 |
[V:4]ED Fz |
[V:1]f4 |
[V:2]d4 |
[V:3]zB, _AF |
[V:4]z4 |
[V:1]g3 e/g/ |
[V:2]e4 |
[V:3]FE Gz |
[V:4]z4 |
[V:1]b3 e/_a/ |
[V:2]e4- |
[V:3]G,4 |
[V:4]zG,,/B,,/ E,z |
[V:1]c'3 _a |
[V:2]e3 f |
[V:3]_A,3 B, |
[V:4]z_A,,/C,/ E,D, |
[V:1]gb df |
[V:2]gG _AD |
[V:3]B,B, B,B, |
[V:4]E,E, B,B, |
[V:1]e2 zg/e/ |
[V:2]E2 z2 |
[V:3]E,2 z2 |
[V:4]E,2 z2 |
[V:1]c4 |
[V:2]zG GG |
[V:3]zC CC |
[V:4]zE EE |
[V:1]=B2 zd/B/ |
[V:2]zF FF |
[V:3]zD DD |
[V:4]zD DD |
[V:1]F4 |
[V:2]zD DD |
[V:3]z=B, B,B, |
[V:4]zG, G,G, |
[V:1]E2 z^f/g/ |
[V:2]zE EE |
[V:3]zC CC |
[V:4]zC CC |
[V:1]B4 |
[V:2]zG GG |
[V:3]zC CC |
[V:4]z=E, E,E, |
[V:1]A2 zc/A/ |
[V:2]zF FF |
[V:3]zC CC |
[V:4]zF, F,F, |
[V:1]E4 |
[V:2]zC CC |
[V:3]zF, F,F, |
[V:4]zA,, A,,A,, |
[V:1]z3 D/F/ |
[V:2]z4 |
[V:3]z4 |
[V:4]z4 |
[V:1]BB Be/d/ |
[V:2]zD Dz |
[V:3]zF Fz |
[V:4]zB, B,z |
[V:1]cc cf/e/ |
[V:2]zA Az |
[V:3]zF Fz |
[V:4]zF, F,z |
[V:1]db ge |
[V:2]zd ec |
[V:3]zF GG |
[V:4]zB,, E,E, |
[V:1]d2 ce/c/ |
[V:2]B2 Az |
[V:3]F2 z2 |
[V:4]F,2 F,,z |
[V:1]Ac' c'A/c/ |
[V:2]zA Az |
[V:3]zA, A,z |
[V:4]zF, F,z |
[V:1]eE ED/F/ |
[V:2]zC Cz |
[V:3]zA, A,z |
[V:4]zA, A,z |
[V:1]Bd cB/A/ |
[V:2]zF GE |
[V:3]zD EC |
[V:4]zB,, E,F, |
[V:1]B2 zD/F/ |
[V:2]D2 z2 |
[V:3]B,2 z2 |
[V:4]B,,F,, B,,z |
[V:1]B/A/B/A/ Be/d/ |
[V:2]zD Dz |
[V:3]zF Fz |
[V:4]zB, B,z |
[V:1]c/=B/c/B/ cf/e/ |
[V:2]zA Az |
[V:3]zF Fz |
[V:4]zF, F,z |
[V:1]d/e/f/g/ a/b/g/e/ |
[V:2]zd ze |
[V:3]zF zE |
[V:4]zB,, zE, |
[V:1]d2 ce/c/ |
[V:2]zB Az |
[V:3]zF Fz |
[V:4]zF, F,z |
[V:1]A=b/c'/ c'A/c/ |
[V:2]zA Az |
[V:3]zA, A,z |
[V:4]zF, F,z |
[V:1]e/c/A/F/ ED/F/ |
[V:2]zC Cz |
[V:3]zA, A,z |
[V:4]zA, A,z |
[V:1]Bd cB/A/ |
[V:2]zF GE |
[V:3]zD EC |
[V:4]zB,, E,F, |
[V:1]B2 zB/d/ |
[V:2]D2 z2 |
[V:3]B,2 z2 |
[V:4]B,,F,, B,,z |
[V:1]g/^f/g/f/ gb/g/ |
[V:2]zD Dz |
[V:3]zG Gz |
[V:4]zB, B,z |
[V:1]^fd dB/d/ |
[V:2]z^F Fz |
[V:3]zA Az |
[V:4]zC Cz |
[V:1]g/^f/g/f/ g/a/b/g/ |
[V:2]zD Dz |
[V:3]zG Gz |
[V:4]zB, B,z |
[V:1]f/=e/g/e/ cA/c/ |
[V:2]z=E Ez |
[V:3]zG Gz |
[V:4]zB, B,z |
[V:1]f/g/=e/g/ fg/e/ |
[V:2]AB AB |
[V:3]FG A=E |
[V:4]F,C, F,C, |
[V:1]af fA/c/ |
[V:2]cA Az |
[V:3]F2 z2 |
[V:4]F,2 z2 |
[V:1]ff gg |
[V:2]FF DD |
[V:3]DD DD |
[V:4]D,D, B,,B,, |
[V:1]a3 A/c/ |
[V:2]^C2 z2 |
[V:3]=E2 z2 |
[V:4]A,,2 z2 |
[V:1]f/g/=e/g/ f/a/g/b/ |
[V:2]AB AB |
[V:3]FG A=E |
[V:4]F,C, F,C, |
[V:1]af fA/c/ |
[V:2]cA Az |
[V:3]F2 z2 |
[V:4]F,2 z2 |
[V:1]ff gg |
[V:2]FF DD |
[V:3]DD DD |
[V:4]D,D, B,,B,, |
[V:1]a//^g//a//g//a//g//a//g// af/a/ |
[V:2]^C3 z |
[V:3]=E3 z |
[V:4]A,,3 z |
[V:1]c'/=b/c'/b/ c'f/_b/ |
[V:2]zf fz |
[V:3]zF Fz |
[V:4]zA, A,z |
[V:1]d'/^c'/d'/c'/ d'b |
[V:2]zf fz |
[V:3]zD Dz |
[V:4]zB, B,z |
[V:1]a/c'/f g/b/=e |
[V:2]zA zB |
[V:3]zC zC |
[V:4]zC zC, |
[V:1]f2 z_a/g/ |
[V:2]zA Az |
[V:3]zC Cz |
[V:4]zF, F,z |
[V:1]f/e/d/c/ =B/_A/G/F/ |
[V:2]zF Fz |
[V:3]zD Dz |
[V:4]zG, G,z |
[V:1]Ec cC/D/ |
[V:2]zE Ez |
[V:3]zG Gz |
[V:4]zC, C,z |
[V:1]E/F/G/A/ =B/c/d/e/ |
[V:2]zG GG |
[V:3]zE EE |
[V:4]zE, E,E, |
[V:1]B2 AD/F/ |
[V:2]D2 Cz |
[V:3]F2 z2 |
[V:4]F,2 F,,z |
[V:1]B/A/B/A/ Be/d/ |
[V:2]zD Dz |
[V:3]zF Fz |
[V:4]zB, B,z |
[V:1]c/=B/c/B/ cf/e/ |
[V:2]zA Az |
[V:3]zF Fz |
[V:4]zF, F,z |
[V:1]d/e/f/g/ a/b/g/e/ |
[V:2]zd ze |
[V:3]zF zE |
[V:4]zB,, zE, |
[V:1]d2 ce/c/ |
[V:2]zB Az |
[V:3]zF Fz |
[V:4]zF, F,z |
[V:1]A=b/c'/ c'A/c/ |
[V:2]zA Az |
[V:3]zA, A,z |
[V:4]zF, F,z |
[V:1]e/c/A/F/ ED/F/ |
[V:2]zC Cz |
[V:3]zA, A,z |
[V:4]zA, A,z |
[V:1]Bd cB/A/ |
[V:2]zF GE |
[V:3]zD EC |
[V:4]zB,, E,F, |
[V:1]B2 zd |
[V:2]D2 zB |
[V:3]B,2 zG |
[V:4]B,,2 z2 |
[V:1]d3 ^f |
[V:2]B/A/B/c/ d/e/d/c/ |
[V:3]G/^F/G/A/ B/c/B/A/ |
[V:4]G,2 zD, |
[V:1]gb zd |
[V:2]B/A/B/A/ B/A/B/A/ |
[V:3]G/^F/G/F/ G/F/G/F/ |
[V:4]G,,2 z2 |
[V:1]d3 ^f |
[V:2]B/A/B/c/ d/e/d/c/ |
[V:3]G/^F/G/A/ B/c/B/A/ |
[V:4]G,2 zD, |
[V:1]gb zg |
[V:2]B/A/B/A/ B/A/B/=B/ |
[V:3]G/^F/G/F/ G/F/G/=F/ |
[V:4]G,,2 z2 |
[V:1]g3 =b |
[V:2]c/=B/c/d/ e/f/e/d/ |
[V:3]E/D/E/F/ G/_A/G/F/ |
[V:4]C,2 zG, |
[V:1]c'e' zg |
[V:2]c/=B/c/B/ c/B/c/B/ |
[V:3]E/D/E/D/ E/D/E/D/ |
[V:4]C,2 z2 |
[V:1]g3 =b |
[V:2]c/=B/c/d/ e/f/e/d/ |
[V:3]E/D/E/F/ G/_A/G/F/ |
[V:4]C,2 zG, |
[V:1]c'e' zc' |
[V:2]c/d/c/B/ A/B/A/G/ |
[V:3]E/F/E/D/ C/D/C/B,/ |
[V:4]C,2 z2 |
[V:1]c'f' ze' |
[V:2]F/E/F/E/ F/E/F/E/ |
[V:3]A,/C/A,/C/ A,/C/A,/C/ |
[V:4]F,4 |
[V:1]d'b' zB |
[V:2]F/D/F/D/ F/D/F/D/ |
[V:3]B,/D/B,/D/ B,/D/B,/D/ |
[V:4]B,2 zB,, |
[V:1]cg Ac |
[V:2]GE CE |
[V:3]EE FA, |
[V:4]E,E, F,F, |
[V:1]B2 zd |
[V:2]D2 zB |
[V:3]B,2 zG |
[V:4]B,,2 z2 |
[V:1]B2 zf |
[V:2]D2 zd |
[V:3]B,2 zB |
[V:4]B,,2 z2 |
[V:1]f3 a |
[V:2]d/c/d/e/ f/g/f/e/ |
[V:3]B/A/B/c/ d/e/d/c/ |
[V:4]B,2 zF, |
[V:1]bd' zf |
[V:2]d/c/d/c/ d/c/d/c/ |
[V:3]B/A/B/A/ B/A/B/A/ |
[V:4]B,2 z2 |
[V:1]f3 a |
[V:2]d/c/d/e/ f/g/f/e/ |
[V:3]B/A/B/c/ d/e/d/c/ |
[V:4]B,,2 zF, |
[V:1]bd' z^f |
[V:2]d/c/d/c/ d/e/d/c/ |
[V:3]B/A/B/A/ B/c/B/A/ |
[V:4]B,2 zD, |
[V:1]gb zd |
[V:2]B/A/B/A/ B/c/B/_A/ |
[V:3]G/^F/G/F/ G/_A/G/=F/ |
[V:4]G,2 zB,, |
[V:1]eg z=B |
[V:2]G/^F/G/F/ G/_A/G/=F/ |
[V:3]E/D/E/D/ E/F/E/D/ |
[V:4]E,2 zG,, |
[V:1]ce ze |
[V:2]E/D/E/D/ E/F/E/D/ |
[V:3]C/=B,/C/B,/ C/D/C/_B,/ |
[V:4]C,2 zC, |
[V:1]e2 dd |
[V:2]C/E/C/E/ B,/D/B,/D/ |
[V:3]A,/C/A,/C/ G,/B,/G,/B,/ |
[V:4]^F,,2 G,,2 |
[V:1]cA BG |
[V:2]^F/D/F/D/ G/D/G/D/ |
[V:3]A,/C/A,/C/ G,/B,/G,/B,/ |
[V:4]D,,2 zD,, |
[V:1]d2 zd |
[V:2]^F/G/A/B/ c/B/c/A/ |
[V:3]D/=E/^F/G/ A/G/A/F/ |
[V:4]D,,2 z2 |
[V:1]d2 z^f |
[V:2]B/A/B/c/ d/e/d/c/ |
[V:3]G/^F/G/A/ B/c/B/A/ |
[V:4]G,2 zD, |
[V:1]gb zd |
[V:2]B/A/B/A/ B/A/B/A/ |
[V:3]G/^F/G/F/ G/F/G/F/ |
[V:4]G,2 z2 |
[V:1]d3 ^f |
[V:2]B/A/B/c/ d/e/d/c/ |
[V:3]G/^F/G/A/ B/c/B/A/ |
[V:4]G,2 zD, |
[V:1]gb zg |
[V:2]B/A/B/A/ B/A/B/=B/ |
[V:3]G/^F/G/F/ G/F/G/=F/ |
[V:4]G,2 z2 |
[V:1]g3 =b |
[V:2]c/=B/c/d/ e/f/e/d/ |
[V:3]E/D/E/F/ G/_A/G/F/ |
[V:4]C,2 zG, |
[V:1]c'e' zg |
[V:2]c/=B/c/B/ c/B/c/B/ |
[V:3]E/D/E/D/ E/D/E/D/ |
[V:4]C,2 z2 |
[V:1]g3 =B |
[V:2]c/=B/c/d/ e/f/e/d/ |
[V:3]E/D/E/F/ G/_A/G/F/ |
[V:4]C,2 zG, |
[V:1]ce ze |
[V:2]c/d/c/B/ A/B/A/G/ |
[V:3]E/F/E/D/ C/D/C/B,/ |
[V:4]C,2 zC,, |
[V:1]e2 d2 |
[V:2]^F/G/A/F/ G/A/B/G/ |
[V:3]A,/B,/C/A,/ B,/C/D/B,/ |
[V:4]D,,4- |
[V:1]c2 B2 |
[V:2]^F/G/A/F/ G/A/B/G/ |
[V:3]A,/B,/C/A,/ B,/C/D/B,/ |
[V:4]D,,4 |
[V:1]AA DD |
[V:2]A/B/c/A/ ^F/G/A/F/ |
[V:3]C/D/E/C/ A,/B,/C/A,/ |
[V:4]D,,D,, D,,D,, |
[V:1]G2 zf |
[V:2]G2 zd |
[V:3]G,2 zB |
[V:4]G,,2 z2 |
[V:1]G2 zD/F/ |
[V:2]G2 z2 |
[V:3]G,2 z2 |
[V:4]G,,2 z2 |
[V:1]BB Be/d/ |
[V:2]zD Dz |
[V:3]zF Fz |
[V:4]zB, B,z |
[V:1]cc cf/e/ |
[V:2]zA Az |
[V:3]zF Fz |
[V:4]zF, F,z |
[V:1]db ge |
[V:2]zd ec |
[V:3]zF GG |
[V:4]zB,, E,E, |
[V:1]d2 ce/c/ |
[V:2]B2 Az |
[V:3]F2 z2 |
[V:4]F,2 F,,z |
[V:1]Ac' c'A/c/ |
[V:2]zA Az |
[V:3]zA, A,z |
[V:4]zF, F,z |
[V:1]eE ED/F/ |
[V:2]zC Cz |
[V:3]zA, A,z |
[V:4]zA, A,z |
[V:1]Bd cB/A/ |
[V:2]zF GE |
[V:3]zD EC |
[V:4]zB,, E,F, |
[V:1]B2 zD/F/ |
[V:2]D2 z2 |
[V:3]B,2 z2 |
[V:4]B,,F,, B,,z |
[V:1]Bb B,e/d/ |
[V:2]z2 d2 |
[V:3]z2 F2 |
[V:4]z2 B,2 |
[V:1]cc' Fe |
[V:2]z2 e2 |
[V:3]z2 A,2 |
[V:4]z2 F,2 |
[V:1]db Eg |
[V:2]dz cz |
[V:3]B,z Gz |
[V:4]B,2 E,2 |
[V:1]d2 ce/c/ |
[V:2]B2 Az |
[V:3]F2 z2 |
[V:4]F,2 z2 |
[V:1]Ac' ae' |
[V:2]z2 e2 |
[V:3]z2 c2 |
[V:4]z2 F,2 |
[V:1]Ec Db |
[V:2]z2 d2 |
[V:3]z2 F2 |
[V:4]z2 B,2 |
[V:1]Eg FA |
[V:2]cc AA |
[V:3]GG EE |
[V:4]E,E, F,F, |
[V:1]B,2 zB/d/ |
[V:2]B2 z2 |
[V:3]D2 z2 |
[V:4]B,,F,, B,,z |
[V:1]gg gb/g/ |
[V:2]zD Dz |
[V:3]zG Gz |
[V:4]zB, B,z |
[V:1]^fd dB/d/ |
[V:2]z^F Fz |
[V:3]zA Az |
[V:4]zC Cz |
[V:1]gG bg |
[V:2]zD Dz |
[V:3]zG Gz |
[V:4]zB, B,z |
[V:1]=ec' cA/c/ |
[V:2]z=E Ez |
[V:3]zG Gz |
[V:4]zB, B,z |
[V:1]fF =Eg |
[V:2]zc zc |
[V:3]zF zC |
[V:4]zA, z=E, |
[V:1]Fa fA/c/ |
[V:2]zc Az |
[V:3]zF Fz |
[V:4]zF, F,z |
[V:1]ff gg |
[V:2]FF DD |
[V:3]DD DD |
[V:4]D,D, B,,B,, |
[V:1]^ga aA/c/ |
[V:2]^C2 z2 |
[V:3]=E2 z2 |
[V:4]A,,2 z2 |
[V:1]fF g=E |
[V:2]zf zg |
[V:3]zc zc |
[V:4]zA, z=E, |
[V:1]aF FA/c/ |
[V:2]za az |
[V:3]zc cz |
[V:4]zF, F,z |
[V:1]ff gg |
[V:2]FF DD |
[V:3]DD DD |
[V:4]D,D, B,,B,, |
[V:1]a//^g//a//g//a//g//a//g// af/a/ |
[V:2]^C3 z |
[V:3]=E3 z |
[V:4]A,,3 z |
[V:1]c'c' c'f/b/ |
[V:2]zf fz |
[V:3]zF Fz |
[V:4]zA, A,z |
[V:1]d'B Gb |
[V:2]zd zd |
[V:3]zF zG |
[V:4]zB, z=E, |
[V:1]a/c'/f g/b/=e |
[V:2]zc zB |
[V:3]zA zG |
[V:4]zF, zC, |
[V:1]f3 _a |
[V:2]zA Az |
[V:3]zF Fz |
[V:4]zF, F,z |
[V:1]=Bd G,F |
[V:2]zF Fz |
[V:3]zD Dz |
[V:4]zG, G,z |
[V:1]E=b c'=B |
[V:2]zE Ez |
[V:3]zG Gz |
[V:4]zC, C,z |
[V:1]cd eg |
[V:2]zG GG/E/ |
[V:3]zE EE |
[V:4]zE, E,E, |
[V:1]B2 AD/F/ |
[V:2]D2 Cz |
[V:3]F2 z2 |
[V:4]F,2 F,,z |
[V:1]Bb B,e/d/ |
[V:2]z2 d2 |
[V:3]z2 F2 |
[V:4]z2 B,2 |
[V:1]cc' Fe |
[V:2]z2 e2 |
[V:3]z2 A,2 |
[V:4]z2 F,2 |
[V:1]db Eg |
[V:2]dz cz |
[V:3]B,z Gz |
[V:4]B,2 E,2 |
[V:1]d2 ce/c/ |
[V:2]B2 Az |
[V:3]F2 z2 |
[V:4]F,2 z2 |
[V:1]Ac' ae' |
[V:2]z2 e2 |
[V:3]z2 c2 |
[V:4]z2 F,2 |
[V:1]Ec Db |
[V:2]z2 d2 |
[V:3]z2 F2 |
[V:4]z2 B,2 |
[V:1]Eg FA |
[V:2]cc AA |
[V:3]GG EE |
[V:4]E,E, F,F, |
[V:1]B,2 zD/F/ |
[V:2]B2 z2 |
[V:3]D2 z2 |
[V:4]B,,2 z2 |
[V:1]BB Be/d/ |
[V:2]zD Dz |
[V:3]zF Fz |
[V:4]zB, B,z |
[V:1]cc cf/e/ |
[V:2]zA Az |
[V:3]zF Fz |
[V:4]zF, F,z |
[V:1]db ge |
[V:2]zd ec |
[V:3]zF GG |
[V:4]zB,, E,E, |
[V:1]d2 ce/c/ |
[V:2]B2 Az |
[V:3]F2 z2 |
[V:4]F,2 F,,z |
[V:1]Ac' c'A/c/ |
[V:2]zA Az |
[V:3]zA, A,z |
[V:4]zF, F,z |
[V:1]eE Ez |
[V:2]zC Cz |
[V:3]zA, A,z |
[V:4]zA, A,z |
[V:1]z3 A/c/ |
[V:2]z4 |
[V:3]z4 |
[V:4]z4 |
[V:1]eE Ez |
[V:2]zC Cz |
[V:3]zA, A,z |
[V:4]zA,, A,,z |
[V:1]z3 d/e/ |
[V:2]z4 |
[V:3]z4 |
[V:4]z4 |
[V:1]g4- |
[V:2]E4- |
[V:3]C4- |
[V:4]A,,4- |
[V:1]g2 E2 |
[V:2]E2 C2 |
[V:3]C2 F,2 |
[V:4]A,,2 A,,2 |
[V:1]E2 z2 |
[V:2]C2 z2 |
[V:3]F,2 z2 |
[V:4]A,,2 z2 |
[V:1]z2 E2 |
[V:2]z2 C2 |
[V:3]z2 F,2 |
[V:4]z2 A,,2 |
[V:1]E2 z2 |
[V:2]C2 z2 |
[V:3]F,2 z2 |
[V:4]A,,2 z2 |
[V:1]z3 F |
[V:2]z3 F |
[V:3]z4 |
[V:4]z4 |
[V:1][BD][BD] [BD]d |
[V:2][BD][BD] [BD]d |
[V:3][D2B,2] [B,2D2] |
[V:4]B,,2 z2 |
[V:1][Fc][Fc] [Fc]f |
[V:2][Fc][cF] [Fc]f |
[V:3][A,2F2] [F2A,2] |
[V:4]F,2 z2 |
[V:1]db ge |
[V:2]db ge |
[V:3][B,2F2] [E2c2] |
[V:4]B,,2 E,2 |
[V:1][d2F2] [cF][Fc] |
[V:2][d2F2] [cF][cF] |
[V:3][B2F2] [A2F2] |
[V:4]F,2 z2 |
[V:1][eF][Fe] [eF]c |
[V:2][eF][Fe] [Fe]c |
[V:3][F2c2] [c2F2] |
[V:4][C2F,2A,,2] z2 |
[V:1][dF][Fd] [Fd][DB] |
[V:2][dF][Fd] [Fd][BD] |
[V:3][B2F2] [F2B2] |
[V:4][B,2B,,2D,2] z2 |
[V:1][Ec][cE] [EA][AE] |
[V:2][Ec][cE] [AE][AE] |
[V:3][E2c2] [F2A2] |
[V:4][C2E,2] [A,2F,2] |
[V:1][B2D2] [a2c2F2] |
[V:2][B2D2] [F2c2a2] |
[V:3][D2B2] [c2F2] |
[V:4][B,2D,2] F,2 |
[V:1][b2B2D2] z2 |]
[V:2][b2B2D2] z2 |]
[V:3][B2D2] z2 |]
[V:4]B,,2 z2 |]

